icons/src/scalable/emblems/pub-symbolic.svg

<svg version="1.1" viewBox="0 0 16.015 16" xmlns="http://www.w3.org/2000/svg">
 <path d="m4 1c-1.1094 0-2 0.89062-2 2h3v4.5c0 0.27734 0.22266 0.5 0.5 0.5s0.51826-0.22326 0.5-0.5v-4.5h6.0219c-0.34375-0.59766-0.98047-1-1.7227-1-0.41406 0-0.80078 0.125-1.1211 0.33984-0.26953-0.78125-1.3031-1.3398-2.1781-1.3398-0.60156 0-1.1328 0.26953-1.5 0.6875-0.36719-0.41797-0.89844-0.6875-1.5-0.6875z" fill="#808080"/>
 <path d="m2 4v7c0 1.662 1.338 3 3 3h4c1.662 0 3-1.338 3-3v-2h1c0.554 0 1-0.446 1-1v-3c0-0.554-0.446-1-1-1h-6v1h4v6c0 1.3296-1.0708 2-2.4004 2h-3.1992c-1.3296 0-2.4004-0.6704-2.4004-2v-6h1v-1zm10 1h1v3h-1zm-11 10v1h14v-1z" fill="#808080" stroke-width=".626"/>
</svg>

<?xml version="1.0" encoding="UTF-8" standalone="no"?>
<svg
   height="16px"
   viewBox="0 0 16 16"
   width="16px"
   version="1.1"
   id="svg169"
   sodipodi:docname="pub-symbolic.svg"
   inkscape:version="1.1 (c68e22c387, 2021-05-23)"
   xmlns:inkscape="http://www.inkscape.org/namespaces/inkscape"
   xmlns:sodipodi="http://sodipodi.sourceforge.net/DTD/sodipodi-0.dtd"
   xmlns="http://www.w3.org/2000/svg"
   xmlns:svg="http://www.w3.org/2000/svg">
  <defs
     id="defs173" />
  <sodipodi:namedview
     id="namedview171"
     pagecolor="#ffffff"
     bordercolor="#666666"
     borderopacity="1.0"
     inkscape:pageshadow="2"
     inkscape:pageopacity="0.0"
     inkscape:pagecheckerboard="0"
     showgrid="false"
     inkscape:zoom="5.8778251"
     inkscape:cx="-10.122792"
     inkscape:cy="5.699387"
     inkscape:window-width="1366"
     inkscape:window-height="704"
     inkscape:window-x="0"
     inkscape:window-y="27"
     inkscape:window-maximized="1"
     inkscape:current-layer="svg169">
    <inkscape:grid
       type="xygrid"
       id="grid4316" />
  </sodipodi:namedview>
  <filter
     id="a"
     height="1"
     width="1"
     x="0"
     y="0">
    <feColorMatrix
       in="SourceGraphic"
       type="matrix"
       values="0 0 0 0 1 0 0 0 0 1 0 0 0 0 1 0 0 0 1 0"
       id="feColorMatrix2" />
  </filter>
  <mask
     id="b">
    <g
       filter="url(#a)"
       id="g7">
      <path
         d="m 0 0 h 16 v 16 h -16 z"
         fill-opacity="0.3"
         id="path5" />
    </g>
  </mask>
  <clipPath
     id="c">
    <path
       d="m 0 0 h 1024 v 800 h -1024 z"
       id="path10" />
  </clipPath>
  <mask
     id="d">
    <g
       filter="url(#a)"
       id="g15">
      <path
         d="m 0 0 h 16 v 16 h -16 z"
         fill-opacity="0.05"
         id="path13" />
    </g>
  </mask>
  <clipPath
     id="e">
    <path
       d="m 0 0 h 1024 v 800 h -1024 z"
       id="path18" />
  </clipPath>
  <mask
     id="f">
    <g
       filter="url(#a)"
       id="g23">
      <path
         d="m 0 0 h 16 v 16 h -16 z"
         fill-opacity="0.05"
         id="path21" />
    </g>
  </mask>
  <clipPath
     id="g">
    <path
       d="m 0 0 h 1024 v 800 h -1024 z"
       id="path26" />
  </clipPath>
  <mask
     id="h">
    <g
       filter="url(#a)"
       id="g31">
      <path
         d="m 0 0 h 16 v 16 h -16 z"
         fill-opacity="0.05"
         id="path29" />
    </g>
  </mask>
  <clipPath
     id="i">
    <path
       d="m 0 0 h 1024 v 800 h -1024 z"
       id="path34" />
  </clipPath>
  <mask
     id="j">
    <g
       filter="url(#a)"
       id="g39">
      <path
         d="m 0 0 h 16 v 16 h -16 z"
         fill-opacity="0.05"
         id="path37" />
    </g>
  </mask>
  <clipPath
     id="k">
    <path
       d="m 0 0 h 1024 v 800 h -1024 z"
       id="path42" />
  </clipPath>
  <mask
     id="l">
    <g
       filter="url(#a)"
       id="g47">
      <path
         d="m 0 0 h 16 v 16 h -16 z"
         fill-opacity="0.05"
         id="path45" />
    </g>
  </mask>
  <clipPath
     id="m">
    <path
       d="m 0 0 h 1024 v 800 h -1024 z"
       id="path50" />
  </clipPath>
  <mask
     id="n">
    <g
       filter="url(#a)"
       id="g55">
      <path
         d="m 0 0 h 16 v 16 h -16 z"
         fill-opacity="0.05"
         id="path53" />
    </g>
  </mask>
  <clipPath
     id="o">
    <path
       d="m 0 0 h 1024 v 800 h -1024 z"
       id="path58" />
  </clipPath>
  <mask
     id="p">
    <g
       filter="url(#a)"
       id="g63">
      <path
         d="m 0 0 h 16 v 16 h -16 z"
         fill-opacity="0.3"
         id="path61" />
    </g>
  </mask>
  <clipPath
     id="q">
    <path
       d="m 0 0 h 1024 v 800 h -1024 z"
       id="path66" />
  </clipPath>
  <mask
     id="r">
    <g
       filter="url(#a)"
       id="g71">
      <path
         d="m 0 0 h 16 v 16 h -16 z"
         fill-opacity="0.5"
         id="path69" />
    </g>
  </mask>
  <clipPath
     id="s">
    <path
       d="m 0 0 h 1024 v 800 h -1024 z"
       id="path74" />
  </clipPath>
  <mask
     id="t">
    <g
       filter="url(#a)"
       id="g79">
      <path
         d="m 0 0 h 16 v 16 h -16 z"
         fill-opacity="0.4"
         id="path77" />
    </g>
  </mask>
  <clipPath
     id="u">
    <path
       d="m 0 0 h 1024 v 800 h -1024 z"
       id="path82" />
  </clipPath>
  <mask
     id="v">
    <g
       filter="url(#a)"
       id="g87">
      <path
         d="m 0 0 h 16 v 16 h -16 z"
         fill-opacity="0.4"
         id="path85" />
    </g>
  </mask>
  <clipPath
     id="w">
    <path
       d="m 0 0 h 1024 v 800 h -1024 z"
       id="path90" />
  </clipPath>
  <mask
     id="x">
    <g
       filter="url(#a)"
       id="g95">
      <path
         d="m 0 0 h 16 v 16 h -16 z"
         fill-opacity="0.5"
         id="path93" />
    </g>
  </mask>
  <clipPath
     id="y">
    <path
       d="m 0 0 h 1024 v 800 h -1024 z"
       id="path98" />
  </clipPath>
  <mask
     id="z">
    <g
       filter="url(#a)"
       id="g103">
      <path
         d="m 0 0 h 16 v 16 h -16 z"
         fill-opacity="0.5"
         id="path101" />
    </g>
  </mask>
  <clipPath
     id="A">
    <path
       d="m 0 0 h 1024 v 800 h -1024 z"
       id="path106" />
  </clipPath>
  <g
     clip-path="url(#c)"
     mask="url(#b)"
     transform="translate(-662,-100)"
     id="g111">
    <path
       d="m 562.46094,212.05859 h 10.44922 c -1.1836,0.49219 -1.29688,2.46094 0,3 h -10.44922 z m 0,0"
       fill="#2e3436"
       id="path109" />
  </g>
  <g
     fill="#2e3436"
     id="g119"
     transform="translate(-22)">
    <path
       d="m 26,1 c -1.109375,0 -2,0.890625 -2,2 h 3 V 7.5 C 27,7.777344 27.222656,8 27.5,8 27.777344,8 28.018257,7.7767424 28,7.5 V 3 h 6.021875 C 33.678125,2.402344 33.041406,2 32.299219,2 31.885156,2 31.498438,2.125 31.178125,2.339844 30.908594,1.558594 29.875,1 29,1 28.398437,1 27.867187,1.269531 27.5,1.6875 27.132813,1.269531 26.601563,1 26,1 Z"
       id="path117"
       sodipodi:nodetypes="sccsssccscscs"
       style="fill:#808080;fill-opacity:1;opacity:1" />
  </g>
  <g
     clip-path="url(#e)"
     mask="url(#d)"
     transform="translate(-662,-100)"
     id="g123">
    <path
       d="m 16,632 h 1 v 1 h -1 z m 0,0"
       fill="#2e3436"
       fill-rule="evenodd"
       id="path121" />
  </g>
  <g
     clip-path="url(#g)"
     mask="url(#f)"
     transform="translate(-662,-100)"
     id="g127">
    <path
       d="m 17,631 h 1 v 1 h -1 z m 0,0"
       fill="#2e3436"
       fill-rule="evenodd"
       id="path125" />
  </g>
  <g
     clip-path="url(#i)"
     mask="url(#h)"
     transform="translate(-662,-100)"
     id="g131">
    <path
       d="m 18,634 h 1 v 1 h -1 z m 0,0"
       fill="#2e3436"
       fill-rule="evenodd"
       id="path129" />
  </g>
  <g
     clip-path="url(#k)"
     mask="url(#j)"
     transform="translate(-662,-100)"
     id="g135">
    <path
       d="m 16,634 h 1 v 1 h -1 z m 0,0"
       fill="#2e3436"
       fill-rule="evenodd"
       id="path133" />
  </g>
  <g
     clip-path="url(#m)"
     mask="url(#l)"
     transform="translate(-662,-100)"
     id="g139">
    <path
       d="m 17,635 h 1 v 1 h -1 z m 0,0"
       fill="#2e3436"
       fill-rule="evenodd"
       id="path137" />
  </g>
  <g
     clip-path="url(#o)"
     mask="url(#n)"
     transform="translate(-662,-100)"
     id="g143">
    <path
       d="m 19,635 h 1 v 1 h -1 z m 0,0"
       fill="#2e3436"
       fill-rule="evenodd"
       id="path141" />
  </g>
  <g
     clip-path="url(#q)"
     mask="url(#p)"
     transform="translate(-662,-100)"
     id="g147">
    <path
       d="m 136,660 v 7 h 7 v -7 z m 0,0"
       fill="#2e3436"
       id="path145" />
  </g>
  <g
     clip-path="url(#s)"
     mask="url(#r)"
     transform="translate(-662,-100)"
     id="g151">
    <path
       d="m 199,642 h 3 v 12 h -3 z m 0,0"
       fill="#2e3436"
       id="path149" />
  </g>
  <g
     clip-path="url(#u)"
     mask="url(#t)"
     transform="translate(-662,-100)"
     id="g155">
    <path
       d="m 209.5,144.16016 c 0.27734,0 0.5,0.22265 0.5,0.5 v 1 c 0,0.27734 -0.22266,0.5 -0.5,0.5 -0.27734,0 -0.5,-0.22266 -0.5,-0.5 v -1 c 0,-0.27735 0.22266,-0.5 0.5,-0.5 z m 0,0"
       fill="#2e3436"
       id="path153" />
  </g>
  <g
     clip-path="url(#w)"
     mask="url(#v)"
     transform="translate(-662,-100)"
     id="g159">
    <path
       d="m 206.5,144.16016 c 0.27734,0 0.5,0.22265 0.5,0.5 v 1 c 0,0.27734 -0.22266,0.5 -0.5,0.5 -0.27734,0 -0.5,-0.22266 -0.5,-0.5 v -1 c 0,-0.27735 0.22266,-0.5 0.5,-0.5 z m 0,0"
       fill="#2e3436"
       id="path157" />
  </g>
  <g
     clip-path="url(#y)"
     mask="url(#x)"
     transform="translate(-662,-100)"
     id="g163">
    <path
       d="m 229.5,143.16016 c -0.54688,0 -1,0.45703 -1,1 0,0.54687 0.45312,1 1,1 0.54687,0 1,-0.45313 1,-1 0,-0.54297 -0.45313,-1 -1,-1 z m 0,0"
       fill="#2e3436"
       id="path161" />
  </g>
  <g
     clip-path="url(#A)"
     mask="url(#z)"
     transform="translate(-662,-100)"
     id="g167">
    <path
       d="m 226.45312,143.16016 c -0.51953,0 -0.95312,0.43359 -0.95312,0.95312 v 0.0937 c 0,0.51953 0.43359,0.95313 0.95312,0.95313 h 0.0937 c 0.51954,0 0.95313,-0.4336 0.95313,-0.95313 v -0.0937 c 0,-0.51953 -0.43359,-0.95312 -0.95313,-0.95312 z m 0,0"
       fill="#2e3436"
       id="path165" />
  </g>
  <path
     id="rect4340"
     style="fill:#808080;stroke-width:0.626"
     d="M 2 4 L 2 7 L 2 11 C 2 12.662 3.338 14 5 14 L 9 14 C 10.662 14 12 12.662 12 11 L 12 9 L 13 9 C 13.554 9 14 8.554 14 8 L 14 5 C 14 4.446 13.554 4 13 4 L 12 4 L 9 4 L 7 4 L 7 5 L 8.5996094 5 L 11 5 L 11 7.4003906 L 11 8 L 11 9 L 11 11 C 11 12.3296 9.9292094 13 8.5996094 13 L 5.4003906 13 C 4.0707906 13 3 12.3296 3 11 L 3 7.4003906 L 3 5 L 4 5 L 4 4 L 2 4 z M 12 5 L 13 5 L 13 8 L 12 8 L 12 5 z M 1 15 L 1 16 L 15 16 L 15 15 L 1 15 z " />
</svg>
